X:125
T:Old Through The Wood Laddie. JC.125
T:Through The Wood Laddie,Old Way. JC.125
R:Air
S:John Clare,Poet,Helpston. (1793-1864)
N:Song text exists. See Deacon.
O:England
A:Northamptonshire
Z:vmp.P. Headford
M:3/4
L:1/8
Q:1/4=120
K:F
“_Key C in MS”FC|\
D3D FG|A4fc|d2fd cA|G4FG|!
” crot”A3B AG|A2F2FG|AGAG AG|A2GFEC|!
” crot”D3E FA|A4fg|ag/g/ edcA|G3A Bc|!
d2fdcA|c2dBAG|A2DFEG|F4:|!
|:fc|d3e fg|a4fg|a2bagf|g4ff|!
ag abag|a2f2fg|ag abag|g2gf ec|!
d3e fg|a4fg|bg/f/ ecBG|G3A Bc|!
d2ff cA|c2dcBA|A2DFEG|G4:|

